packages/kaspersky-hexa-ui-icons/src/iconsSVGs/48/CameraIp.svg

<svg xmlns="http://www.w3.org/2000/svg" width="48" height="48" fill="none" viewBox="0 0 48 48"><path fill="currentColor" fill-rule="evenodd" d="M44 40.036v-24h-2v24h-2.59L34 34.746v-11c3.7236-6.73 2.1318-15.157-3.7901-20.065s-14.4979-4.908-20.4198 0S2.2765 17.016 6 23.746v11l-6 5.87v7.42h48v-8zm-11.54-4 4.09 4H3.45l4.09-4zM20 2.036c7.732 0 14 6.268 14 14s-6.268 14-14 14-14-6.268-14-14 6.268-14 14-14m0 30a16 16 0 0 0 12-5.45v7.45H8v-7.45a16 16 0 0 0 12 5.45m26 14H2v-4h44zm-26-23c3.866 0 7-3.134 7-7s-3.134-7-7-7-7 3.134-7 7 3.134 7 7 7m0-12c2.7614 0 5 2.2385 5 5s-2.2386 5-5 5-5-2.2386-5-5 2.2386-5 5-5m-3 5c0-1.6569 1.3431-3 3-3v2c-.5523 0-1 .4477-1 1s.4477 1 1 1 1-.4477 1-1h2c0 1.6568-1.3431 3-3 3s-3-1.3432-3-3" clip-rule="evenodd"/></svg>

<svg width="48" height="48" viewBox="0 0 48 48" fill="none" xmlns="http://www.w3.org/2000/svg">
<path fill-rule="evenodd" clip-rule="evenodd" d="M44 40.036V16.036H42V40.036H39.41L34 34.746V23.746C37.7236 17.016 36.1318 8.58898 30.2099 3.68099C24.288 -1.227 15.712 -1.227 9.7901 3.68099C3.86825 8.58898 2.27645 17.016 6 23.746V34.746L0 40.616V48.036H48V40.036H44ZM32.46 36.036L36.55 40.036H3.45L7.54 36.036H32.46ZM20 2.03597C27.732 2.03597 34 8.30398 34 16.036C34 23.768 27.732 30.036 20 30.036C12.268 30.036 6 23.768 6 16.036C6 8.30398 12.268 2.03597 20 2.03597ZM20 32.036C24.5972 32.0276 28.9687 30.0422 32 26.586V34.036H8V26.586C11.0313 30.0422 15.4028 32.0276 20 32.036ZM46 46.036H2V42.036H46V46.036ZM20 23.036C23.866 23.036 27 19.902 27 16.036C27 12.17 23.866 9.03597 20 9.03597C16.134 9.03597 13 12.17 13 16.036C13 19.902 16.134 23.036 20 23.036ZM20 11.036C22.7614 11.036 25 13.2745 25 16.036C25 18.7974 22.7614 21.036 20 21.036C17.2386 21.036 15 18.7974 15 16.036C15 13.2745 17.2386 11.036 20 11.036ZM17 16.036C17 14.3791 18.3431 13.036 20 13.036V15.036C19.4477 15.036 19 15.4837 19 16.036C19 16.5883 19.4477 17.036 20 17.036C20.5523 17.036 21 16.5883 21 16.036H23C23 17.6928 21.6569 19.036 20 19.036C18.3431 19.036 17 17.6928 17 16.036Z"  fill="currentColor"/>
</svg>
